svgs/sharp-solid/cassette-vhs.svg

<svg xmlns="http://www.w3.org/2000/svg" viewBox="0 0 576 512"><!--! Font Awesome Pro 6.6.0 by @fontawesome - https://fontawesome.com License - https://fontawesome.com/license (Commercial License) Copyright 2024 Fonticons, Inc. --><path d="M0 32l0 96 576 0 0-96L0 32zM0 160L0 480l576 0 0-320L0 160zM467.9 384L416 384l0-34.7c18.6-6.6 32-24.4 32-45.3s-13.4-38.7-32-45.3l0-34.7 51.9 0c17.6 21.9 28.1 49.7 28.1 80s-10.5 58.1-28.1 80zM160 349.3l0 34.7-51.9 0C90.5 362.1 80 334.3 80 304s10.5-58.1 28.1-80l51.9 0 0 34.7c-18.6 6.6-32 24.4-32 45.3s13.4 38.7 32 45.3zM352 224l0 160-128 0 0-160 128 0z"/></svg>

<svg xmlns="http://www.w3.org/2000/svg" viewBox="0 0 576 512"><!--! Font Awesome Pro 6.4.2 by @fontawesome - https://fontawesome.com License - https://fontawesome.com/license (Commercial License) Copyright 2023 Fonticons, Inc. --><path d="M0 32v96H576V32H0zM0 160V480H576V160H0zM467.9 384H416V349.3c18.6-6.6 32-24.4 32-45.3s-13.4-38.7-32-45.3V224h51.9c17.6 21.9 28.1 49.7 28.1 80s-10.5 58.1-28.1 80zM160 349.3V384H108.1C90.5 362.1 80 334.3 80 304s10.5-58.1 28.1-80H160v34.7c-18.6 6.6-32 24.4-32 45.3s13.4 38.7 32 45.3zM352 224V384H224V224H352z"/></svg>
